tnt-russia-btg-map/map/images/RU_Mechanized_Infantry_Corps_HQ.svg

<svg width="50" height="50" viewBox="0 0 50 50" fill="none" xmlns="http://www.w3.org/2000/svg">
<path d="M19.5156 10.1787L35.6587 26.3218L19.5156 42.4649L3.37253 26.3218L19.5156 10.1787Z" fill="#E8777B" stroke="#232323"/>
<path d="M19.5209 31.15C24.9389 31.15 29.3309 28.992 29.3309 26.33C29.3309 23.668 24.9389 21.51 19.5209 21.51C14.103 21.51 9.71094 23.668 9.71094 26.33C9.71094 28.992 14.103 31.15 19.5209 31.15Z" stroke="#232323" stroke-miterlimit="10"/>
<path d="M11.4453 34.4L27.5853 18.26" stroke="#232323"/>
<path d="M11.4453 18.26L27.5853 34.4" stroke="#232323"/>
<path d="M12.9428 4.82991L11.2428 1.65991H12.8828L13.4528 2.88991C13.6028 3.18991 13.7428 3.52991 13.9228 3.93991H13.9628C14.1128 3.52991 14.2528 3.18991 14.3828 2.88991L14.9028 1.65991H16.4728L14.7828 4.89991L16.5828 8.17991H14.9428L14.2928 6.84991C14.1328 6.50991 13.9828 6.17991 13.8028 5.77991H13.7628C13.6128 6.17991 13.4628 6.50991 13.3228 6.84991L12.7128 8.17991H11.1328L12.9428 4.82991Z" fill="#232323"/>
<path d="M18.6069 4.82991L16.9069 1.65991H18.5469L19.1169 2.88991C19.2669 3.18991 19.4069 3.52991 19.5869 3.93991H19.6269C19.7769 3.52991 19.9169 3.18991 20.0469 2.88991L20.5669 1.65991H22.1369L20.4469 4.89991L22.2469 8.17991H20.6069L19.9569 6.84991C19.7969 6.50991 19.6469 6.17991 19.4669 5.77991H19.4269C19.2769 6.17991 19.1269 6.50991 18.9869 6.84991L18.3769 8.17991H16.7969L18.6069 4.82991Z" fill="#232323"/>
<path d="M24.2788 4.82991L22.5788 1.65991H24.2188L24.7888 2.88991C24.9388 3.18991 25.0788 3.52991 25.2588 3.93991H25.2987C25.4487 3.52991 25.5888 3.18991 25.7188 2.88991L26.2388 1.65991H27.8088L26.1188 4.89991L27.9188 8.17991H26.2788L25.6287 6.84991C25.4687 6.50991 25.3188 6.17991 25.1388 5.77991H25.0988C24.9488 6.17991 24.7988 6.50991 24.6588 6.84991L24.0487 8.17991H22.4688L24.2788 4.82991Z" fill="#232323"/>
<path d="M3.36719 49.1601V26.3301" stroke="#232323"/>
</svg>

<svg enable-background="new 0 0 50 50" viewBox="0 0 50 50" xmlns="http://www.w3.org/2000/svg"><g stroke="#232323"><path d="m8.1 14.91h22.83v22.83h-22.83z" fill="#e8777b" transform="matrix(.7071 .7071 -.7071 .7071 24.3351 -6.0917)"/><ellipse cx="19.52" cy="26.33" fill="none" rx="9.81" ry="4.82" stroke-miterlimit="10"/><path d="m11.45 34.4 16.14-16.14" fill="none"/><path d="m11.45 18.26 16.14 16.14" fill="none"/></g><path d="m12.94 4.83-1.7-3.17h1.64l.57 1.23c.15.3.29.64.47 1.05h.04c.15-.41.29-.75.42-1.05l.52-1.23h1.57l-1.69 3.24 1.8 3.28h-1.64l-.65-1.33c-.16-.34-.31-.67-.49-1.07h-.04c-.15.4-.3.73-.44 1.07l-.61 1.33h-1.58z" fill="#232323"/><path d="m18.61 4.83-1.7-3.17h1.64l.57 1.23c.15.3.29.64.47 1.05h.04c.15-.41.29-.75.42-1.05l.52-1.23h1.57l-1.69 3.24 1.8 3.28h-1.64l-.65-1.33c-.16-.34-.31-.67-.49-1.07h-.04c-.15.4-.3.73-.44 1.07l-.61 1.33h-1.58z" fill="#232323"/><path d="m24.28 4.83-1.7-3.17h1.64l.57 1.23c.15.3.29.64.47 1.05h.04c.15-.41.29-.75.42-1.05l.52-1.23h1.57l-1.69 3.24 1.8 3.28h-1.64l-.65-1.33c-.16-.34-.31-.67-.49-1.07h-.04c-.15.4-.3.73-.44 1.07l-.61 1.33h-1.58z" fill="#232323"/><path d="m3.37 49.16v-22.83" fill="none" stroke="#232323"/><path d="m36.39 5.4c0-1.76.48-3.2 1.32-4.57l.92.38c-.73 1.3-1.05 2.77-1.05 4.19s.32 2.89 1.05 4.19l-.92.38c-.84-1.37-1.32-2.81-1.32-4.57z" fill="#232323"/><path d="m39.54 5.18h3.94v.94h-3.94z" fill="#232323"/><path d="m44.39 9.59c.74-1.3 1.06-2.77 1.06-4.19s-.32-2.89-1.06-4.19l.92-.38c.84 1.37 1.32 2.81 1.32 4.57s-.48 3.2-1.32 4.57z" fill="#232323"/></svg>
